X: 361
T: not identified 6
T: 7a 305
M: 2/4
L: 1/8
Q: 1/4=180
K: Em
%%MIDI drum dzdz 54 54 40 40
%%MIDI drumon
f^ga2|d4-|d4|:d2f2|f2d2|f2f2|d4|
d2f2|f2d2|f2f2|d4 :: E2(3^G=FE| (3DE=F E2 |
(3^G=FE  (3DE=F |E2 E2| E2(3^G=FE| (3DE=F E2 |
(3^G=FE  (3DE=F |E2 E2 ::f2 (3def|e2 f2|
f2 (3def|e4|f2 (3def|e2 f2|f2 (3def|e4 ::
(3d^cd e2|g2 f2|(3d^cd e2|(3ed^c B2| (3d^cd (3ede|(3gfg f2|
(3d^cd e2|(3ed^c B2 :: E2(3^G=FE| (3DE=F E2 |
(3^G=FE  (3DE=F |E2 E2| E2(3^G=FE| (3DE=F E2 |(3^G=FE  (3DE=F |E2 E2:|



